src/actions/symbolic/record-screen-symbolic.svg

<svg width="16px" height="16px" version="1.1" viewBox="0 0 16 16" xmlns="http://www.w3.org/2000/svg">
 <path d="m9 7a1.0001 1.0001 0 0 0-0.70703 0.29297l-0.70703 0.70703h-1.5859a1.0001 1.0001 0 0 0-1 1v6a1.0001 1.0001 0 0 0 1 1h9a1.0001 1.0001 0 0 0 1-1v-6a1.0001 1.0001 0 0 0-1-1h-1.5859l-0.70703-0.70703a1.0001 1.0001 0 0 0-0.70703-0.29297h-3zm0 1h3l1 1h2v6h-9v-6h2l1-1z" color="#000000" fill="#363636" stroke-linecap="round" stroke-linejoin="round"/>
 <path d="m10.5 9a2.5 2.5 0 0 0-2.5 2.5 2.5 2.5 0 0 0 2.5 2.5 2.5 2.5 0 0 0 2.5-2.5 2.5 2.5 0 0 0-2.5-2.5zm0 1a1.5 1.5 0 0 1 1.5 1.5 1.5 1.5 0 0 1-1.5 1.5 1.5 1.5 0 0 1-1.5-1.5 1.5 1.5 0 0 1 1.5-1.5z" fill="#363636" fill-rule="evenodd" stop-color="#000000" stroke-linecap="round" stroke-linejoin="round" stroke-width="2"/>
 <path d="m1 0a1.0001 1.0001 0 0 0-1 1v5a1.0001 1.0001 0 0 0 1 1h6a1.0001 1.0001 0 0 0 1-1v-0.61133l1.6836 0.56055a1.0001 1.0001 0 0 0 1.3164-0.94922v-3a1.0001 1.0001 0 0 0-1.3164-0.94922l-1.6836 0.56055v-0.61133a1.0001 1.0001 0 0 0-1-1h-6zm0 1h6v2l3-1v3l-3-1v2h-6v-5z" color="#000000" fill="#363636" stroke-linecap="round" stroke-linejoin="round"/>
</svg>

<svg xmlns="http://www.w3.org/2000/svg" width="16" height="16">
    <path fill="#050505" fill-opacity=".7" d="M9 7a1 1 0 0 0-.707.293L7.586 8H6a1 1 0 0 0-1 1v6a1 1 0 0 0 1 1h9a1 1 0 0 0 1-1V9a1 1 0 0 0-1-1h-1.586l-.707-.707A1 1 0 0 0 12 7H9zm0 1h3l1 1h2v6H6V9h2l1-1z" color="#000"/>
    <path fill="#050505" fill-opacity=".7" fill-rule="evenodd" d="M10.5 9A2.5 2.5 0 0 0 8 11.5a2.5 2.5 0 0 0 2.5 2.5 2.5 2.5 0 0 0 2.5-2.5A2.5 2.5 0 0 0 10.5 9zm0 1a1.5 1.5 0 0 1 1.5 1.5 1.5 1.5 0 0 1-1.5 1.5A1.5 1.5 0 0 1 9 11.5a1.5 1.5 0 0 1 1.5-1.5z"/>
    <path fill="#050505" fill-opacity=".7" d="M1 0a1 1 0 0 0-1 1v5a1 1 0 0 0 1 1h6a1 1 0 0 0 1-1v-.611l1.684.56A1 1 0 0 0 11 5V2a1 1 0 0 0-1.316-.95L8 1.612V1a1 1 0 0 0-1-1H1zm0 1h6v2l3-1v3L7 4v2H1V1z" color="#000"/>
</svg>
